X: 21972
T: Kitty Lyons'
R: slide
M: 12/8
K: Dmajor
|:A|d2A cBA F2E D2F|E2E- E2F G2A B2c|
d2A cBA F2E D2F|EDE F2E D3-D2:|
|:A|B2B- BAB f3-f2B|e2e- efe d2c B2A|
B2B- BAB f3-f2B|e2e- efe d3-d2:|

